X: 126
T: No_60_You_Tied_Me_with_a_Black_Hair_Rope.krn
N: Derived from No_60_You_Tied_Me_with_a_Black_Hair_Rope.krn
%%abc-version 2.0
%%abcx-abcm2ps-target-version 5.9.1 (29 Sep 2008)
%%abc-creator hum2abc beta
%%abcx-conversion-date 2019/03/15 08:37:56
%%humdrum-veritas 1224770757
%%humdrum-veritas-data 3935144690
%%linebreak <none>
%%barnumbers 0
L: 1/4
M: 2/4
K: Db clef=bass
[K:clef=bass][M:2/4]A,2 | 
EE | 
DD | 
B,A,/ z/ | 
EE | 
DA, | 
A,A, | 
F,E,/ z/ | 
A,A, | 
B,B,/F,/ ||  
[M:3/4]A,2F, ||  
[M:2/4]E,2- | 
E,z | 
DB, | 
EE | 
D3/B,/ | 
D2 | 
B,A, | 
B,B,/F,/ | 
A,2 | 
F,/E,/- E,/ z/ | 
A,B, | 
A,/F,/ F,/E,/ ||  
[M:3/4]A,2A, | 
A,3 |]  



